X:1
T:Christus Jesus Splendor
T:Marenzio
T:Christus Jesus Splendor
T:Copyright © 2017 by CPDL.  This edition can be fully distributed, duplicated, performed, and recorded. 
T:Copyright © 2017 by CPDL.  This edition can be fully distributed, duplicated, performed, and recorded. 
T:Copyright © 2017 by CPDL.  This edition can be fully distributed, duplicated, performed, and recorded. 
T:Copyright © 2017 by CPDL.  This edition can be fully distributed, duplicated, performed, and recorded. 
T:Copyright © 2017 by CPDL.  This edition can be fully distributed, duplicated, performed, and recorded. 
T:Copyright © 2017 by CPDL.  This edition can be fully distributed, duplicated, performed, and recorded. 
T:Copyright © 2017 by CPDL.  This edition can be fully distributed, duplicated, performed, and recorded. 
T:Copyright © 2017 by CPDL.  This edition can be fully distributed, duplicated, performed, and recorded. 
T:Copyright © 2017 by CPDL.  This edition can be fully distributed, duplicated, performed, and recorded. 
C:Marenzio
Z:Copyright © 2017 by CPDL.  This edition can be fully distributed, duplicated, performed, and recorded.
Z:
%%score [ 1 2 3 4 ]
L:1/8
Q:1/4=52
M:2/1
K:D
V:1 treble nm="SOPRANO" snm="S."
V:2 treble nm="ALTO" snm="A."
V:3 treble-8 transpose=-12 nm="TENOR" snm="T."
V:4 bass nm="BASS" snm="B."
V:1
"^Transfiguration:Jesus Christ, radiance of the Father,and the exact representation of his person,upholding all things by the Word of his power,as he was purging our sins,was pleased to manifest his glory upon a high mountain." G8 A8 | %1
w: Chri- stus|
 B8 A8 | z16 | z4 d8 c4 | B2 A2 A6 ^GF G4 | A8 z8 | z8 d8 | c8 B8 | A8 =G4 F4 | E8 D4 G4- | %10
w: Je- sus||Splen- dor|Pa- * * * * *|tris.|Chri-|stus Je-|sus Splen- dor|Pa- tris, Splen-|
 G4 F4 E2 D2 D4- | D2 CB, C4 D8 | z16 | D6 D2 E8 | F8 F4 B4- | B2 B2 c4 (d6 c2 | B8) A8 | %17
w: * dor Pa- * *|* * * * tris.||et fi- gu-|ris sub- stan-|* ti- ae e- *|* jus,|
 z4 A6 A2 B4- | B4 e4 c4 d4- | d4 B4 A4 F4- | F4 G6 A2 B2 c2 | d2 c2 B2 A2 B2 A2 A4- | %22
w: et fi- gu-|* ris sub- stan-|* ti- ae e-|||
 A2 ^GF G4 A8 | z16 | F8 =G4 A4- | A2 A2 F4 B8 | A4 F8 G4- | G4 A4 B8 | E4 A8 B4- | %29
w: * * * * jus,||por- tans o-|* mni- a ver-|bo vir- tu-|* tis su-|ae, vir- tu-|
 B2 A2 A8 =G2 F2 | G2 FE D4 D8 | z4 A4 B8 | B4 (d8 c2 B2 | c4) c4 d4 d4 | d4 c4 B8- | B4 B4 A4 E4 | %36
w: * tis su- * *|* * * * ae|pur- ga-|ti- o- * *|* nem pec- ca-|to- rum fa-|* ci- ens in|
 e8 e8 | z16 | z8 A8- | A8 d8 | d8 B8 | d8 (e6 d2 | c16) | z4 B6 AG F2 G2 | A2 B2 c2 A2 B2 c2 d4- | %45
w: mon- te,||in|_ mon-|te ex-|cel- so _|_|glo- * * * *||
 d4 c4 B4 A4 | G4 F4 E6 D2 | E2 F2 G6 F2 F2 ED | E8 D8 | z16 | z16 | z16 | z4 A8 d4- | %53
w: * ri- o- sus|ap- pa- re- *||* re||||di- gna-|
 d2 c2 B8 A4 | (d6 cB A8) | z4 B6 AG F2 G2 | A4 F4 E8 | F4 d8 c4 | B8 A8- | A8 z4 A4- | %60
w: * * * tus|est, _ _ _|glo- * * * *|* ri- o-|sus ap- pa-|re- re|_ di-|
"^rit." A4 d6 c2 B4- | B2 A2 G8 F4 | G16 |] %63
w: * gna- * *|* * * tus|est.|
V:2
 z16 | z16 | z16 | D8 E8 | F8 E8 | z4 D8 C4 | B,2 A,2 A,6 ^G,F, G,4 | A,8 z4 =G4- | %8
w: |||Chri- stus|Je- sus|Splen- dor|Pa- * * * * *|tris, Splen-|
 G4 F4 E2 D2 D4- | D2 CB, C4 D8 | z16 | z4 G8 F4 | E2 D2 D6 CB, C4 | (D2 C2 B,2 A,2 B,8) | %14
w: * dor Pa- * *|* * * * tris,||Splen- dor|Pa- * * * * *|tris, _ _ _ _|
 z8 D6 D2 | E8 F8 | D4 G6 F2 F4 | G2 FE D2 E2 F8 | G8 z4 D4- | D2 D2 E4 F8 | D8 G6 G2 | %21
w: et fi-|gu- ris|sub- stan- ti- ae|e- * * * * *|jus, et|_ fi- gu- ris|sub- stan- ti-|
 A4 (F6 E2 D2 C2 | B,8) A,8 | z16 | z8 z4 C4- | C4 D4 E6 E2 | E4 A8 G4 | E4 F8 ^G4 | A8 F8- | %29
w: ae e- * * *|* jus,||por-|* tans o- mni-|a ver- bo|vir- tu- tis|su- ae|
 F8 z8 | z16 | z16 | D8 E8 | E4 (=G8 F2 E2 | F4) F4 D6 D2 | G4 F4 E8- | E8 E8 | D8 E6 E2 | %38
w: _|||pur- ga-|ti- o- * *|* nem pec- ca-|to- rum fa-|* ci-|ens, pec- ca-|
 E4 D4 =C8- | C4 =C4 B,8 | z4 D4 G8 | G4 F4 A8- | A8 E8 | z4 G6 FE D2 E2 | F2 ED E2 F2 G4 F4 | %45
w: to- rum fa-|* ci- ens,|in mon-|te ex- cel-|* so|glo- * * * *|* * * * * * ri-|
 E8 D4 F4 | E4 D8 C2 B,2 | C2 D2 E6 D2 D4- | D2 CB, C4 D8- | D8 z8 | z16 | z16 | z8 F8 | F12 C4 | %54
w: o- sus ap-|pa- re- * *||* * * * re,|_|||di-|gna- tus|
 B,4 F6 ED C2 D2 | E2 F2 G2 E2 F4 A2 G2 | F2 E2 D8 C4 | D4 D4 F4 F4- | (F2 ED E4) F4 D4 | %59
w: est, glo- * * * *|* * * * * ri- *|* * * o-|sus ap- pa- re-|* * * * re di-|
 C4 F4 E8 | z4 F4 D8- | D8 D8 | D16 |] %63
w: gna- tus est,|di- gna-|* tus|est.|
V:3
 z16 | z16 | G8 A8 | B8 A8 | d4 c4 B8 | A8 z8 | z16 | z8 =G8 | D8 z8 | z16 | z16 | G8 A8 | B8 A8 | %13
w: ||Chri- stus|Je- sus|Splen- dor Pa-|tris,||Chri-|stus,|||Chri- stus|Je- sus|
 G4 F4 E8 | D8 z8 | G6 G2 A8 | B4 G4 d6 d2 | e4 (f6 e2 d2 c2 | B8) A4 A4 | B6 B2 c4 d4- | %20
w: Splen- dor Pa-|tris.|et fi- gu-|ris sub- stan- ti-|ae e- * * *|* jus, sub-|stan- ti- ae e-|
 (d2 c2 B2 A2 G8) | F8 z4 D4- | D4 E4 F6 F2 | F4 B8 A4 | c4 d8 e4 | f8 B8 | z4 A4 B8 | %27
w: |jus, por-|* tans o- mni-|a ver- bo|vir- tu- tis|su- ae.|pur- ga-|
 B4 (d8 c2 B2 | c4) c4 d6 d2 | d4 c4 B8- | B4 B4 A8 | D4 d8 d4- | d4 D4 G8- | G8 A8 | z4 A4 B8 | %35
w: ti- o- * *|* nem pec- ca-|to- rum fa-|* ci- ens,|in mon- te.|_ in mon-|* te,|pur- ga-|
 B4 d8 =c2 B2 | =c6 BA G4 A4 | F4 G8 A4 | E4 (G8 F2 E2 | F6) F2 (G6 A2 | B8) z4 G4- | G4 d8 ^c4 | %42
w: ti- o- * *|* * * * nem|pec- ca- to-|rum fa- * *|* ci- ens, _|_ in|_ mon- te|
 A4 e6 d2 c2 B2 | c2 d2 e2 B2 d8- | d4 c4 z8 | z16 | z16 | z16 | z8 z4 B4- | %49
w: ex- cel- * * *||* so||||glo-|
 B2 AG F2 G2 A2 B2 c2 A2 | B2 c2 d8 c4 | B4 A4 G4 F4 | E8 F4 B4 | A4 d4 c8 | z4 d6 cB A2 B2 | %55
w: |* * * ri-|o- sus ap- pa-|re- re di-|gna- tus est,|glo- * * * *|
 c2 BA B2 c2 d4 A4 | A16 | A4 B8 A4 | G8 F4 f4- | f4 d8 c4 | d4 A4 B6 A2 | G2 F2 B4 A8 | G16 |] %63
w: * * * * * * ri-|o-|sus ap- pa-|re- re di-|* gna- tus|est, di- gna- *|* * * tus|est.|
V:4
 z16 | G,8 F,8 | E,8 D,8 | z16 | D,8 E,8 | F,8 E,8 | D,4 C,4 B,,8 | (A,,2 B,,2 C,2 D,2 E,8) | %8
w: |Chri- stus|Je- sus||Chri- stus|Je- sus|Splen- dor Pa-|tris, _ _ _ _|
 z8 G,8 | A,8 B,8 | A,8 G,4 F,4 | E,8 D,8 | G,,6 G,,2 A,,8 | B,,4 D,4 G,6 G,2 | %14
w: Chri-|stus Je-|sus Splen- dor|Pa- tris.|et fi- gu-|ris sub- stan- ti-|
 A,4 (B,6 A,2 G,2 F,2 | E,8) D,8 | z16 | z8 D,6 D,2 | E,8 F,4 D,4 | G,6 G,2 A,4 B,4- | %20
w: ae e- * * *|* jus,||et fi-|gu- ris sub-|stan- ti- ae e-|
 (B,2 A,2 G,2 F,2 E,8) | D,16 | z8 z4 D,4- | D,4 E,4 F,6 F,2 | F,4 B,8 A,4 | F,8 G,8 | %26
w: |jus,|por-|* tans o- mni-|a ver- bo|vir- tu-|
 A,4 D,8 E,4- | E,4 D,4 B,,8 | A,,8 z8 | D,8 E,8 | E,4 (G,8 F,2 E,2 | F,4) F,4 G,6 G,2 | %32
w: tis, vir- tu-|* tis su-|ae|pur- ga-|ti- o- * *|* nem pec- ca-|
 G,4 F,4 E,8- | E,4 E,4 D,8- | D,8 G,,8- | G,,8 A,,8 | A,,4 (=C,8 B,,2 A,,2 | B,,4) B,,4 =C,6 C,2 | %38
w: to- rum fa-|* ci- ens,|_ pur-|* ga-|ti- o- * *|* nem pec- ca-|
 =C,4 B,,4 A,,8- | A,,4 A,,4 G,,4 G,,4 | G,8 G,4 E,4 | B,8 A,8 | z4 A,,4 A,8 | A,4 E,4 B,8 | %44
w: to- rum fa-|* ci- ens, in|mon- te ex-|cel- so,|in mon-|te ex- cel-|
 A,8 z8 | z16 | z4 D,4 A,8 | A,4 E,4 B,8 | A,8 z4 G,4- | G,2 F,E, D,2 E,2 F,2 E,D, E,2 F,2 | %50
w: so,||in mon-|te ex- cel-|so glo-||
 G,4 F,4 E,8 | D,4 F,4 E,4 D,4- | D,2 C,B,, C,4 D,4 B,,4 | D,8 F,8 | B,,8 z8 | z8 D,8 | F,8 A,8 | %57
w: * ri- o-|sus ap- pa- re-|* * * * re di-|gna- tus|est,|di-|gna- tus|
 D,8 z8 | z8 D,8 | F,8 A,8 | D,8 G,,8 | B,,8 D,8 | G,,16 |] %63
w: est,|di-|gna- tus|est, di-|gna- tus|est.|

